images/icons/vk.svg

<svg width="15" height="9" viewBox="0 0 15 9" fill="none" xmlns="http://www.w3.org/2000/svg">
<path d="M7.59063 8.5625C9.76062 8.5625 8.98688 7.37192 9.15438 7.02958C9.15188 6.77392 9.14937 6.528 9.15938 6.3785C9.29688 6.41208 9.62125 6.55454 10.2913 7.11896C11.3256 8.02354 11.59 8.5625 12.4256 8.5625H13.9637C14.4512 8.5625 14.705 8.38754 14.8319 8.24075C14.9544 8.09883 15.0744 7.84967 14.9431 7.46183C14.6 6.528 12.5988 4.91546 12.4744 4.74538C12.4931 4.71396 12.5231 4.67225 12.5387 4.65058H12.5375C12.9325 4.19829 14.44 2.24071 14.6619 1.45746C14.6625 1.45638 14.6631 1.45475 14.6631 1.45312C14.7831 1.09562 14.6731 0.863792 14.5594 0.732708C14.3881 0.536625 14.1156 0.4375 13.7475 0.4375H12.2094C11.6944 0.4375 11.3038 0.662292 11.1063 1.07233C10.7756 1.80088 9.84688 3.29913 9.15063 3.82942C9.12937 3.07813 9.14375 2.5045 9.155 2.07821C9.1775 1.24675 9.25 0.4375 8.25437 0.4375H5.83687C5.21312 0.4375 4.61625 1.02792 5.2625 1.72883C5.8275 2.34308 5.46562 2.68542 5.5875 4.3895C5.1125 3.94804 4.2675 2.75583 3.67 1.23213C3.5025 0.819917 3.24875 0.438042 2.53437 0.438042H0.99625C0.3725 0.438042 0 0.732708 0 1.22617C0 2.33442 2.83063 8.5625 7.59063 8.5625ZM2.53437 1.25054C2.67 1.25054 2.68375 1.25054 2.78437 1.49808C3.39625 3.05971 4.76875 5.37046 5.77125 5.37046C6.52437 5.37046 6.52437 4.7015 6.52437 4.44963L6.52375 2.44438C6.4825 1.78083 6.20375 1.45042 6.02063 1.25L8.21313 1.25217C8.21437 1.26138 8.20063 3.47029 8.21937 4.00546C8.21937 4.76542 8.91562 5.20092 10.0025 4.24758C11.1494 3.12579 11.9425 1.44879 11.9744 1.38054C12.0213 1.28304 12.0619 1.25 12.2094 1.25H13.7475H13.7537C13.7531 1.25163 13.7531 1.25325 13.7525 1.25487C13.6119 1.82362 12.2238 3.63604 11.7594 4.19883C11.7519 4.2075 11.745 4.21671 11.7381 4.22592C11.5338 4.51517 11.3675 4.83475 11.7663 5.28433H11.7669C11.8031 5.32225 11.8975 5.41108 12.035 5.53458C12.4625 5.917 13.9288 7.22458 14.0588 7.74458C13.9725 7.7565 13.8788 7.74783 12.4256 7.75054C12.1163 7.75054 11.8744 7.34971 10.9513 6.54262C10.1212 5.84279 9.5825 5.55679 9.09188 5.55679C8.13937 5.55679 8.20875 6.22683 8.2175 7.03717C8.22062 7.91575 8.21438 7.63788 8.22125 7.69313C8.16563 7.71208 8.00625 7.75 7.59063 7.75C3.625 7.75 1.0425 2.29488 0.943125 1.25217C0.9775 1.24946 1.45062 1.25108 2.53437 1.25054Z" fill="#1C2D5A"/>
</svg>

<svg width="15" height="9" fill="none" xmlns="http://www.w3.org/2000/svg"><path d="M7.59 8.563c2.17 0 1.397-1.191 1.564-1.533-.002-.256-.005-.502.005-.652.138.034.462.177 1.132.741 1.035.905 1.299 1.444 2.135 1.444h1.538c.487 0 .741-.175.868-.322.122-.142.242-.391.111-.78-.343-.933-2.344-2.546-2.469-2.716.02-.031.05-.073.065-.094h-.002c.395-.453 1.903-2.41 2.125-3.194a.01.01 0 0 0 .001-.004c.12-.357.01-.59-.104-.72-.17-.196-.443-.295-.811-.295h-1.539c-.515 0-.905.224-1.103.634-.33.729-1.26 2.227-1.955 2.757a30.091 30.091 0 0 1 .004-1.75c.023-.832.095-1.642-.9-1.642H5.836c-.624 0-1.22.59-.574 1.292.564.614.203.956.325 2.66-.476-.441-1.32-1.633-1.918-3.157C3.503.82 3.249.438 2.534.438H.996C.373.438 0 .733 0 1.226c0 1.108 2.83 7.337 7.59 7.337ZM2.535 1.25c.136 0 .15 0 .25.247C3.396 3.06 4.77 5.37 5.771 5.37c.753 0 .753-.668.753-.92V2.444c-.042-.663-.32-.994-.503-1.194l2.192.002c.001.01-.012 2.218.006 2.753 0 .76.697 1.196 1.784.243 1.146-1.122 1.94-2.8 1.971-2.867.047-.098.088-.131.235-.131h1.545c0 .002 0 .003-.002.005-.14.569-1.528 2.381-1.993 2.944l-.02.027c-.205.29-.372.609.027 1.058.037.038.132.127.269.25.428.383 1.894 1.69 2.024 2.21-.086.013-.18.004-1.633.007-.31 0-.552-.401-1.475-1.208-.83-.7-1.369-.986-1.86-.986-.952 0-.882.67-.873 1.48.003.879-.004.6.003.656-.055.02-.215.057-.63.057-3.966 0-6.549-5.455-6.648-6.498.035-.003.508 0 1.591-.001Z" fill="#1C2D5A"/></svg>
